X:1
T:Vade piger
T:Francesco de Layolle
T:Source : Bicinia---Tomus I---Wittemberg---G.Rhau---1545. Editor : André Vierendeels (16/06/17).
T:Notes : Original clefs :  C4, F4 Original note values have been halved Dotted brackets indicate black notes   
T:Vade piger
T:©
T:©
T:©
C:Francesco de Layolle
Z:©
%%score [ 1 2 ]
L:1/8
Q:1/4=120
M:2/2
K:C
V:1 treble-8 nm="Tenor" snm="T"
V:2 bass nm="Bass" snm="B"
V:1
 c4 c2 c2 | d4 z2 c2 | d2 f4 e2 | f3 e c2 d2- | d2 c2 f2 e2- | ed B2 c3 B | G2 A2 E3 F | %7
w: Va- de pi-|ger ad|for- mi- *||* cam et con-|* * si- de- *|* ra vi- as|
 GABc d2 e2 | z2 A2 B2 d2- | d2 c2 d3 c | BA B2 A4 | z2 c4 A2 | c2 B2- BA A2- | A2 G2 A2 z A | %14
w: _ _ _ _ e- ius|et di- sce|_ sa- pi- en-|* * ti- am,|quae- cum|non ha- * * be-|* * at du-|
 c2 B2 c3 A | Bc d4 c2 | f4 e2 d2- | dc A2 B4 | A4 z2 A2 | c3 d e3 d/c/ | B3 c d2 e2- | %21
w: cem nec prae- *|* * cep- to-|rem nec Prin-|* * * ci-|pem, pa-|rat _ _ _ _|_ _ _ in|
 e2 c2 B2 d2- | d2 c2 B2 A2 | z2 A2 B2 c2 | d2 B2 A4 | z2 A2 B2 c2 | d2 c2 B2 A2 | G2 c3 B B2- | %28
w: _ ae- sta- *|* * * te|ci- bum si-|* * bi,|et con- gre-|gat in mes- se|qiod com- * *|
 BA A4 G2 | ABcA Bc d2- | d2 c2 d4 | z2 G2 ABcA | Bc d2 d2 c2 | d2 B2 ABcA | Bc d4 c2 | f4 e2 d2- | %36
w: ||* men- dat,|qui col- * * *|* * * li- git|in ae- sta- * * *|* * te, fi-|li- * *|
 d2 c2 B4 | A2 c3 B AG | FD d2 c2 B2 | A2 f3 e e2- | ed d4 c2 | d8 |] %42
w: |us sa- * * *||* pi- * *|ens _ _ _|est.|
V:2
 z4 G,4 | G,2 G,2 A,4 | z2 D,2 A,4 | D,2 A,4 D,2 | A,4 z2 A,,2 | E,4 A,,2 E,2- | E,2 A,,3 B,,C,D, | %7
w: Va-|de pi- ger|ad for-|* * mi-|cam, et|con- si- *|* de- * * *|
 E,F, G,3 F,E,D, | C,2 D,2 B,,4 | A,,2 E,2 F,2 A,2- | A,2 G,2 A,2 A,,B,, | C,D,E,F, G,2 A,2- | %12
w: ra _ vi- * * *|as e- ius|et di- sce sa-|* pi- en- * *||
 A,2 G,2 A,2 A,,2 | C,2 B,,3 A,, A,,2- | A,,2 G,,2 A,,2 A,2- | A,2 G,2 A,4 | z2 D,2 E,2 F,2 | %17
w: * ti- am, quae-|cum non _ ha-||* be- at,|du- cem nec|
 G,2 A,4 G,2 | A,2 D,2 F,3 G, | A,2 A,,2 C,3 D, | E,F, G,3 F, E,D, | C,A,, A,4 G,2 | A,4 z2 D,2 | %23
w: prae- cep- to-|rem nec Prin- ci-|pem, pa- rat _|_ _ in _ _ _|ae- * sta- *|te, ci|
 E,2 F,2 G,2 E,2 | D,4 z2 D,2 | E,2 F,2 G,2 E,2 | D,2 E,4 F,2 | E,2 A,,B,, C,D,E,C, | %28
w: _ _ bum si-|bi et|con- gre- gat in|mes- se quod|com- * * * * * *|
 D,3 C, B,,A,, B,,2 | A,,2 A,4 G,2 | A,4 D,E,F,D, | E,F, G,4 F,2 | G,2 G,,2 A,,B,,C,A,, | %33
w: * * * * me-||dat, qui _ _ _|_ _ col- li-|git in ae- * * *|
 B,,C, D,4 C,2 | D,2 B,,2 A,,2 A,2 | D,2 A,4 D,E, | F,G, A,3 G,/F,/ G,2 | A,4 z2 D,2 | %38
w: * * sta- *|* * te fi-|li- us sa- *|* * * * * pi-|ens, fi-|
 A,2 D,2 A,2 G,2 | A,2 D,2 F,2 G,2 | A,2 D,2 E,4 | D,8 |] %42
w: li- us sa- pi-||* * ens|est.|

